X: 6
T: Miss Bells Favourite
%R: reel
B: "Twenty Four Country Dances for the Year 1780", Thomas Skillern, ed. p.3 #2
F: http://www.vwml.org/browse/browse-collections-dance-tune-books/browse-skillerns1780#
Z: 2014 John Chambers <jc:trillian.mit.edu>
M: C|
L: 1/8
K: D
A |\
DFAf ecBA | BcdF E3F |\
GABc dBAg | fdef d3 :|\
|: (f/g/) |\
adbg adbg | afed c3e |
cAce f^gaf | ecBc A3a |\
a>baA g>agA | gfed c3(G/F/) |\
FABc defg | afef d3 :|
%%begintext align
%% Cast down two Cu .|. up again :|. lead down
%% between the 2d Cu and out round the 3d in between
%% the 3d Hands Six round .|: Lead thro' the top &
%% cast off Hands four at bottom and Right and
%% Left at top :|:
%%endtext

%%sep 1 1 500
%%sep 1 1 500
